X: 49
T: No_43_Dragging-Feet_Dance_(a).krn
N: Derived from No_43_Dragging-Feet_Dance_(a).krn
%%abc-version 2.0
%%abcx-abcm2ps-target-version 5.9.1 (29 Sep 2008)
%%abc-creator hum2abc beta
%%abcx-conversion-date 2019/03/15 08:36:49
%%humdrum-veritas 402943233
%%humdrum-veritas-data 3189269458
%%linebreak <none>
%%barnumbers 0
L: 1/8
M: 3/4
%%staves {1 2}
V: 1 clef=bass
V: 2 clef=bass
K: E
[V:1] [K:clef=bass][M:3/4]EE CE C3/C/ [I:setbarnb 2]| 
[V:2] [K:clef=bass][M:3/4]G,,2G,,2G,,2 | 
[V:1] E4C2 | 
[V:2] G,,2G,,2G,,2 | 
[V:1] B,2B,2G,2 ||  
[V:2] z6 ||  
[V:1] [M:2/4]B,B, G,B, | 
[V:2] [M:2/4]z4 | 
[V:1] B,2!fermata!B,2 ||  
[V:2] z4 ||  
[V:1] [M:3/4]EE CEC2 ||  
[V:2] [M:3/4]z6 ||  
[V:1] [M:2/4]G,G, G,3/E,/ ||  
[V:2] [M:2/4]z4 ||  
[V:1] [M:3/4]E,6 ||  
[V:2] [M:3/4]z6 ||  
[V:1] [M:2/4]E,E, C,E, | 
[V:2] [M:2/4]z4 | 
[V:1] !fermata!E,4 ||  
[V:2] z4 ||  
[V:1] [M:3/4]B,B, G,B,G,2 ||  
[V:2] [M:3/4]z6 ||  
[V:1] [M:2/4]E,E, E,3/B,,/ ||  
[V:2] [M:2/4]z4 ||  
[V:1] [M:3/4]B,,6 ||  
[V:2] [M:3/4]z6 ||  
[V:1] [M:2/4]B,,B,, B,,B,, | 
[V:2] [M:2/4]z4 | 
[V:1] B,,4 :|]  
[V:2] z4 :|]  



